X: 16801
T: Harris Dance
R: reel
M: 4/4
K: Gmajor
|:~B2AG E4|~B2AG EFED|~B2AG DEED|GAGE DEED:|
|:G2dB cdde|~d2Bd dBBA|G2dB cdde|dBAB EEED:|

